X: 15217
T: Ginley's
R: reel
M: 4/4
K: Dmajor
|:GE BE E2 BE|G3 B AF DF|GE BE GA Bd|(3efg fg ed cd|
BE EF G2 BE|G3 B AF DF|G2 BG FG AF|1 EF GA BE EF:|2 EF GA Be ef||
|:gb ef gb eg|fd dc df af|gg gz gf eg|fe dB ee ez|
ge BA ^GA Bd|cd eg fd d2|(3gab eg fe ce|1 dB AF ee ef:|2 dB AF EE EF||

